T: Little Jack's
M: 6/8
L: 1/8
K: Gmaj
| GFG B2 A | ~ or ~ | GFG E2 D | ~ or ~ | GG/G/G B2 A | ~ or ~ | GG/G/G E2 D | ~ or GFG A2 F | GBd d^cd | g2 e d2 G | FAG AFD |GFG AGF | GBd d^cd | gdg b2 a | g3 g2 :|dBd g2 f | ece a2 g | faf d2 a | gbg d2 e |dBd g2 d | ece a2 e | fed c'fa | g3 g2 :|
